icons/svg/tourist/artwork.svg

<?xml version="1.0" encoding="UTF-8" standalone="no"?>
<!-- Created with Inkscape (http://www.inkscape.org/) -->

<svg
   xmlns:dc="http://purl.org/dc/elements/1.1/"
   xmlns:cc="http://creativecommons.org/ns#"
   xmlns:rdf="http://www.w3.org/1999/02/22-rdf-syntax-ns#"
   xmlns:svg="http://www.w3.org/2000/svg"
   xmlns="http://www.w3.org/2000/svg"
   xmlns:sodipodi="http://sodipodi.sourceforge.net/DTD/sodipodi-0.dtd"
   xmlns:inkscape="http://www.inkscape.org/namespaces/inkscape"
   version="1.0"
   width="580"
   height="580"
   id="svg2"
   sodipodi:version="0.32"
   inkscape:version="0.48.4 r9939"
   sodipodi:docname="artwork.svg"
   inkscape:output_extension="org.inkscape.output.svg.inkscape">
  <metadata
     id="metadata2975">
    <rdf:RDF>
      <cc:Work
         rdf:about="">
        <dc:format>image/svg+xml</dc:format>
        <dc:type
           rdf:resource="http://purl.org/dc/dcmitype/StillImage" />
        <cc:license
           rdf:resource="http://web.resource.org/cc/PublicDomain" />
        <dc:language>en</dc:language>
        <dc:title />
      </cc:Work>
    </rdf:RDF>
  </metadata>
  <sodipodi:namedview
     inkscape:window-height="1004"
     inkscape:window-width="1920"
     inkscape:pageshadow="2"
     inkscape:pageopacity="0.0"
     guidetolerance="10.0"
     gridtolerance="10.0"
     objecttolerance="10.0"
     borderopacity="1.0"
     bordercolor="#666666"
     pagecolor="#ffffff"
     id="base"
     inkscape:zoom="0.92167712"
     inkscape:cx="227.31904"
     inkscape:cy="317.57134"
     inkscape:window-x="1680"
     inkscape:window-y="0"
     inkscape:current-layer="svg2"
     showgrid="false"
     inkscape:window-maximized="1" />
  <defs
     id="defs4">
    <inkscape:perspective
       sodipodi:type="inkscape:persp3d"
       inkscape:vp_x="0 : 290 : 1"
       inkscape:vp_y="0 : 1000 : 0"
       inkscape:vp_z="580 : 290 : 1"
       inkscape:persp3d-origin="290 : 193.33333 : 1"
       id="perspective2441" />
    <inkscape:perspective
       id="perspective3452"
       inkscape:persp3d-origin="30 : 20 : 1"
       inkscape:vp_z="60 : 30 : 1"
       inkscape:vp_y="0 : 1000 : 0"
       inkscape:vp_x="0 : 30 : 1"
       sodipodi:type="inkscape:persp3d" />
  </defs>
  <g
     id="g1327">
    <path
       d="M 66.275,1.768 C 24.94,1.768 1.704,23.139 1.704,66.804 L 1.704,516.927 C 1.704,557.771 22.599,579.156 63.896,579.156 L 515.92,579.156 C 557.227,579.156 578.149,558.841 578.149,516.927 L 578.149,66.804 C 578.149,24.203 557.227,1.768 514.628,1.768 C 514.624,1.768 66.133,1.625 66.275,1.768 z "
       style="fill:#111;stroke:#eee;stroke-width:3.40799999"
       id="path1329" />
  </g>
  <path
     style="color:#000000;fill:#ffffff;fill-opacity:1;fill-rule:nonzero;stroke:none;stroke-width:0;marker:none;visibility:visible;display:inline;overflow:visible;enable-background:accumulate"
     d="M 95.239719,296.94087 C 92.638649,268.47964 72.647454,149.70463 141.43555,91.878116 210.22364,34.051608 351.60153,21.106832 424.83587,84.233906 498.07022,147.36099 512.47836,280.88835 447.77912,339.80022 383.07988,398.71209 277.8729,361.50359 238.61541,313.56649 199.35792,265.6294 202.79088,207.33392 231.85378,173.14088 c 29.0629,-34.19304 102.2152,-42.23443 136.2324,-14.17492 34.01721,28.05951 38.08379,104.71791 11.17509,127.12123 -26.90871,22.40332 -71.16913,-8.59037 -79.48725,-21.99084 -8.31812,-13.40047 -5.67634,-6.11028 2.29465,-11.94187 7.97098,-5.8316 34.03796,18.40868 46.77236,5.53133 12.73441,-12.87736 9.68624,-45.80277 -7.91236,-61.05432 -17.5986,-15.25154 -59.8363,-18.20335 -78.15431,1.07664 -18.31802,19.27999 -20.97693,51.42193 3.04262,81.3484 24.01955,29.92648 100.65112,74.04883 144.00421,37.6167 43.35309,-36.43213 33.85043,-148.09247 -15.72543,-190.28625 -49.57585,-42.193784 -157.6764,-36.897964 -199.05996,15.57498 -41.38355,52.47293 -37.60621,106.35762 -37.25231,125.74409 0.35391,19.38648 17.44623,67.25577 63.216,97.41681 31.67188,20.87091 77.81268,45.30909 119.1967,48.03445 22.92296,1.5096 82.69562,-3.86372 108.92346,-1.92167 -41.81773,15.77722 -117.19699,29.62726 -138.58492,45.94527 -10.31637,28.89771 -3.04431,45.22509 0.95336,74.12279 l -66.03996,-0.89882 C 247.45711,490.4609 268.492,457.10065 245.28069,438.88229 194.48647,412.64675 104.24573,372.64195 95.239719,296.94087 z"
     id="rect3760"
     inkscape:connector-curvature="0"
     sodipodi:nodetypes="czzzzzzzzzzzzzzzzzsscccccc" />
</svg>

<svg width="580" height="580" viewBox="0 0 580 580" fill="none" xmlns="http://www.w3.org/2000/svg">
<g clip-path="url(#clip0)">
<path d="M66.2751 1.76815C24.9401 1.76815 1.7041 23.1391 1.7041 66.8041V516.927C1.7041 557.771 22.5991 579.156 63.8961 579.156H515.92C557.227 579.156 578.149 558.841 578.149 516.927V66.8041C578.149 24.2031 557.227 1.76815 514.628 1.76815C514.624 1.76815 66.1331 1.62515 66.2751 1.76815Z" fill="#111111" stroke="#EEEEEE" stroke-width="3.408"/>
<path d="M95.2396 296.941C92.6385 268.479 72.6473 149.704 141.435 91.878C210.224 34.0515 351.601 21.1067 424.836 84.2338C498.07 147.361 512.478 280.888 447.779 339.8C383.08 398.712 277.873 361.503 238.615 313.566C199.358 265.629 202.791 207.334 231.854 173.141C260.917 138.948 334.069 130.906 368.086 158.966C402.103 187.025 406.17 263.684 379.261 286.087C352.352 308.49 308.092 277.497 299.774 264.096C291.456 250.696 294.098 257.986 302.069 252.154C310.04 246.323 336.107 270.563 348.841 257.686C361.575 244.808 358.527 211.883 340.929 196.631C323.33 181.38 281.092 178.428 262.774 197.708C244.456 216.988 241.797 249.13 265.817 279.056C289.836 308.983 366.468 353.105 409.821 316.673C453.174 280.241 443.672 168.581 394.096 126.387C344.52 84.1931 236.419 89.4889 195.036 141.962C153.652 194.435 157.429 248.319 157.783 267.706C158.137 287.092 175.23 334.962 220.999 365.123C252.671 385.994 298.812 410.432 340.196 413.157C363.119 414.667 422.892 409.293 449.12 411.235C407.302 427.013 331.923 440.863 310.535 457.181C300.218 486.078 307.49 502.406 311.488 531.304L245.448 530.405C247.457 490.461 268.492 457.101 245.281 438.882C194.486 412.647 104.246 372.642 95.2396 296.941Z" fill="white"/>
</g>
<defs>
<clipPath id="clip0">
<path d="M0 0H580V580H0V0Z" fill="white"/>
</clipPath>
</defs>
</svg>
